X: 34874
T: Robert MacDonald's
R: slide
M: 12/8
K: Amixolydian
ABA a2a geg a2a|GAG g2e ded BAG|
ABA a2a geg a2a|1 g2e dBd eAA A3:|2 g2e dBd eAA AEG||
ABA e2e d2d BAB|GAG Gge ded BAG|
ABA e2e dBd e2a|g2e dBd eAA A3:|

